X: 18549
T: I Have To Go Home
R: jig
M: 6/8
K: Dmajor
FGA B2A|FGA B2d|BAA A2d|BAA A2G|
FGA B2d|BAF E2G|FDD E2G|FDD D2E:|
|:FGA Bdf|edd d2f|afg fed|BAA A2f|
afg fed|BAF E2G|FDD E2G|1 FDD D2E:|2 FDD D2d||
|:efe edB|efe d2e|fgf edB|AFA B2d|
BAA ABd|BAF E2G|FDD E2G|1 FDD D2d:|2 FDD D2E||

